img/footer/linkedin.svg

<svg width="16" height="16" viewBox="0 0 16 16" fill="none" xmlns="http://www.w3.org/2000/svg">
<path d="M14.75 0.375H1.21484C0.617188 0.375 0.125 0.902344 0.125 1.53516V15C0.125 15.6328 0.617188 16.125 1.21484 16.125H14.75C15.3477 16.125 15.875 15.6328 15.875 15V1.53516C15.875 0.902344 15.3477 0.375 14.75 0.375ZM4.87109 13.875H2.55078V6.38672H4.87109V13.875ZM3.71094 5.33203C2.9375 5.33203 2.33984 4.73438 2.33984 3.99609C2.33984 3.25781 2.9375 2.625 3.71094 2.625C4.44922 2.625 5.04688 3.25781 5.04688 3.99609C5.04688 4.73438 4.44922 5.33203 3.71094 5.33203ZM13.625 13.875H11.2695V10.2188C11.2695 9.375 11.2695 8.25 10.0742 8.25C8.84375 8.25 8.66797 9.19922 8.66797 10.1836V13.875H6.34766V6.38672H8.5625V7.40625H8.59766C8.91406 6.80859 9.6875 6.17578 10.8125 6.17578C13.168 6.17578 13.625 7.75781 13.625 9.76172V13.875Z" fill="#5A7184"/>
</svg>

<svg width="16" height="16" fill="none" xmlns="http://www.w3.org/2000/svg"><path d="M14.75.375H1.215c-.598 0-1.09.527-1.09 1.16V15c0 .633.492 1.125 1.09 1.125H14.75c.598 0 1.125-.492 1.125-1.125V1.535c0-.633-.527-1.16-1.125-1.16zm-9.879 13.5h-2.32V6.387h2.32v7.488zm-1.16-8.543c-.773 0-1.371-.598-1.371-1.336 0-.738.598-1.371 1.37-1.371.74 0 1.337.633 1.337 1.371S4.449 5.332 3.71 5.332zm9.914 8.543H11.27v-3.656c0-.844 0-1.969-1.196-1.969-1.23 0-1.406.95-1.406 1.934v3.691h-2.32V6.387h2.215v1.02h.035c.316-.598 1.09-1.231 2.214-1.231 2.356 0 2.813 1.582 2.813 3.586v4.113z" fill="#5A7184"/></svg>
